communes/703.svg

<?xml version="1.0" encoding="UTF-8" standalone="no"?>
<svg
   xmlns:dc="http://purl.org/dc/elements/1.1/"
   xmlns:cc="http://web.resource.org/cc/"
   xmlns:rdf="http://www.w3.org/1999/02/22-rdf-syntax-ns#"
   xmlns:svg="http://www.w3.org/2000/svg"
   xmlns="http://www.w3.org/2000/svg"
   xmlns:xlink="http://www.w3.org/1999/xlink"
   xmlns:sodipodi="http://sodipodi.sourceforge.net/DTD/sodipodi-0.dtd"
   xmlns:inkscape="http://www.inkscape.org/namespaces/inkscape"
   height="763"
   width="603"
   version="1.0"
   id="svg20"
   sodipodi:version="0.32"
   inkscape:version="0.44.1"
   sodipodi:docname="Reconvilier-coat of arms.svg"
   sodipodi:docbase="F:\Mis Documentos\Mis imágenes\Encyclopédie\Escudos de Suiza">
  <metadata
     id="metadata31">
    <rdf:RDF>
      <cc:Work
         rdf:about="">
        <dc:format>image/svg+xml</dc:format>
        <dc:type
           rdf:resource="http://purl.org/dc/dcmitype/StillImage" />
        <dc:date>07-AUG-2006</dc:date>
        <dc:creator>
          <cc:Agent>
            <dc:title>Jérôme BLUM (wagner51)</dc:title>
          </cc:Agent>
        </dc:creator>
        <cc:license
           rdf:resource="http://creativecommons.org/licenses/GPL/2.0/" />
        <dc:coverage />
        <dc:description>Gabarit pour le Projet:Blasons de WIkipédia</dc:description>
        <dc:subject>
          <rdf:Bag>
            <rdf:li>blason suisse modèle gabarit projet blasons</rdf:li>
          </rdf:Bag>
        </dc:subject>
        <dc:language>fr</dc:language>
        <dc:title>Gabrit d'un blason suisse</dc:title>
      </cc:Work>
      <cc:License
         rdf:about="http://creativecommons.org/licenses/GPL/2.0/">
        <cc:permits
           rdf:resource="http://web.resource.org/cc/Reproduction" />
        <cc:permits
           rdf:resource="http://web.resource.org/cc/Distribution" />
        <cc:requires
           rdf:resource="http://web.resource.org/cc/Notice" />
        <cc:permits
           rdf:resource="http://web.resource.org/cc/DerivativeWorks" />
        <cc:requires
           rdf:resource="http://web.resource.org/cc/ShareAlike" />
        <cc:requires
           rdf:resource="http://web.resource.org/cc/SourceCode" />
      </cc:License>
    </rdf:RDF>
  </metadata>
  <defs
     id="defs29">
    <linearGradient
       id="linearGradient2893">
      <stop
         style="stop-color:#ffffff;stop-opacity:0.3137255;"
         offset="0"
         id="stop2895" />
      <stop
         id="stop2897"
         offset="0.19"
         style="stop-color:#ffffff;stop-opacity:0.25098041;" />
      <stop
         style="stop-color:#6b6b6b;stop-opacity:0.1254902;"
         offset="0.60000002"
         id="stop2901" />
      <stop
         style="stop-color:#000000;stop-opacity:0.1254902;"
         offset="1"
         id="stop2899" />
    </linearGradient>
    <linearGradient
       id="linearGradient2955">
      <stop
         style="stop-color:white;stop-opacity:0;"
         offset="0"
         id="stop2965" />
      <stop
         style="stop-color:black;stop-opacity:0.64583331;"
         offset="1"
         id="stop2959" />
    </linearGradient>
    <radialGradient
       inkscape:collect="always"
       xlink:href="#linearGradient2893"
       id="radialGradient3236"
       gradientUnits="userSpaceOnUse"
       gradientTransform="matrix(1.215027,1.531577e-24,1.464684e-23,1.266667,-839.1924,-490.4894)"
       cx="858.04236"
       cy="579.93323"
       fx="858.04236"
       fy="579.93323"
       r="300" />
  </defs>
  <sodipodi:namedview
     inkscape:window-height="682"
     inkscape:window-width="1024"
     inkscape:pageshadow="2"
     inkscape:pageopacity="0.0"
     guidetolerance="10.0"
     gridtolerance="10.0"
     objecttolerance="10.0"
     borderopacity="1.0"
     bordercolor="#666666"
     pagecolor="#ffffff"
     id="base"
     inkscape:zoom="0.48301887"
     inkscape:cx="335.06248"
     inkscape:cy="338.56548"
     inkscape:window-x="-4"
     inkscape:window-y="-4"
     inkscape:current-layer="layer2"
     showgrid="true" />
  <desc
     id="desc22">Coat of Arms of Canton of Freiburg (Fribourg)</desc>
  <g
     inkscape:groupmode="layer"
     id="layer1"
     inkscape:label="Fond écu"
     sodipodi:insensitive="true">
    <path
       id="path1899"
       d="M 1.5,1.49998 L 1.5,460.3679 C 1.5,626.6785 135.81456,761.5 301.49999,761.5 C 467.18543,761.5 601.5,626.6785 601.5,460.3679 L 601.5,1.49998 L 1.5,1.49998 z "
       style="fill:white;fill-opacity:1" />
  </g>
  <g
     inkscape:groupmode="layer"
     id="layer2"
     inkscape:label="Meubles"
     sodipodi:insensitive="true">
    <g
       id="g32359"
       inkscape:label="Capa 1"
       transform="matrix(0.828668,0,0,0.828668,-4.048467,-4.286558)">
      <path
         d="M 567.44961,50.272829 C 572.74547,50.221703 607.97078,129.19453 612.28486,132.30851 C 616.59895,135.42248 701.74405,143.33493 703.42853,148.42458 C 705.11301,153.51422 641.90246,211.87694 640.31392,216.99818 C 638.72538,222.11942 657.61286,306.64815 653.35806,309.84485 C 649.10327,313.04155 574.81169,270.13885 569.51583,270.18997 C 564.21997,270.2411 490.74798,314.57028 486.43389,311.45631 C 482.1198,308.34233 499.41563,223.4643 497.73116,218.37465 C 496.04667,213.28501 431.75101,156.1532 433.33955,151.03197 C 434.92809,145.91073 519.90908,136.35591 524.16387,133.15921 C 528.41867,129.96252 562.15375,50.323954 567.44961,50.272829 z "
         style="fill:black;fill-opacity:1;fill-rule:nonzero;stroke:black;stroke-width:2.49688101;stroke-linecap:butt;stroke-linejoin:miter;stroke-miterlimit:5;stroke-dasharray:none;stroke-opacity:1"
         id="path18949" />
      <path
         style="fill:black;fill-opacity:1;fill-rule:evenodd;stroke:black;stroke-width:0.99625582px;stroke-linecap:butt;stroke-linejoin:miter;stroke-opacity:1"
         d="M 1.5,3.40625 L 1.5,94.0625 C 43.04392,104.47717 80.961338,147.75154 87.59375,203.6875 C 91.58014,272.05677 134.24223,305.77352 174.59375,312.90625 C 212.83536,324.7138 251.71982,344.1659 266.4375,419.9375 C 273.88602,471.67239 306.11994,521.72985 356.8125,530.9375 C 415.92147,554.92097 444.82806,585.863 444.5625,638.28125 C 444.35852,678.54553 464.85314,699.10963 476.84375,704.59375 C 484.77251,698.38149 491.61003,693.01119 497.59375,688.25 C 497.64401,688.20639 497.69977,688.16865 497.75,688.125 C 497.77452,688.10548 497.788,688.082 497.8125,688.0625 C 526.84921,662.81506 551.01728,632.07436 568.6875,597.4375 C 557.46401,586.05772 546.81359,560.48063 545.71875,547.78125 C 540.55434,487.87825 487.27677,445.20384 457.6875,439.875 C 396.15286,415.90476 372.05772,408.07564 366.5625,328.875 C 357.89917,257.87224 318.86885,236.64676 277.21875,221.96875 C 227.1581,204.32675 189.38611,187.83685 185.84375,112.59375 C 184.38215,52.006949 140.3413,14.542062 86.375,3.4375 L 1.5,3.40625 z "
         transform="matrix(1.206756,0,0,1.206756,4.885511,5.172829)"
         id="path17229" />
    </g>
  </g>
  <g
     inkscape:groupmode="layer"
     id="layer3"
     inkscape:label="Reflet final"
     style="display:inline"
     sodipodi:insensitive="true">
    <path
       style="fill:url(#radialGradient3236);fill-opacity:1"
       d="M 1.5,1.5 L 1.5,460.3679 C 1.5,626.67854 135.81454,761.5 301.49993,761.5 C 467.1854,761.5 601.5,626.67854 601.5,460.3679 L 601.5,1.5 L 1.5,1.5 z "
       id="path2346" />
  </g>
  <g
     inkscape:groupmode="layer"
     id="layer4"
     inkscape:label="Contour final"
     style="display:inline"
     sodipodi:insensitive="true">
    <path
       style="fill:none;fill-opacity:1;stroke:#000000;stroke-width:3;stroke-miterlimit:4;stroke-dasharray:none;stroke-opacity:1"
       d="M 1.5,1.5 L 1.5,460.36794 C 1.5,626.67854 135.81454,761.5 301.49993,761.5 C 467.1854,761.5 601.5,626.67854 601.5,460.36794 L 601.5,1.5 L 1.5,1.5 z "
       id="path3239" />
  </g>
</svg>

<?xml version="1.0" encoding="UTF-8"?>
<svg version="1.0" viewBox="0 0 603 763" xmlns="http://www.w3.org/2000/svg" xmlns:cc="http://web.resource.org/cc/" xmlns:dc="http://purl.org/dc/elements/1.1/" xmlns:rdf="http://www.w3.org/1999/02/22-rdf-syntax-ns#" xmlns:xlink="http://www.w3.org/1999/xlink">
<metadata>
<rdf:RDF>
<cc:Work rdf:about="">
<dc:format>image/svg+xml</dc:format>
<dc:type rdf:resource="http://purl.org/dc/dcmitype/StillImage"/>
<dc:date>07-AUG-2006</dc:date>
<dc:creator>
<cc:Agent>
<dc:title>Jérôme BLUM (wagner51)</dc:title>
</cc:Agent>
</dc:creator>
<cc:license rdf:resource="http://creativecommons.org/licenses/GPL/2.0/"/>
<dc:coverage/>
<dc:description>Gabarit pour le Projet:Blasons de WIkipédia</dc:description>
<dc:subject>
<rdf:Bag>
<rdf:li>blason suisse modèle gabarit projet blasons</rdf:li>
</rdf:Bag>
</dc:subject>
<dc:language>fr</dc:language>
<dc:title>Gabrit d'un blason suisse</dc:title>
</cc:Work>
<cc:License rdf:about="http://creativecommons.org/licenses/GPL/2.0/">
<cc:permits rdf:resource="http://web.resource.org/cc/Reproduction"/>
<cc:permits rdf:resource="http://web.resource.org/cc/Distribution"/>
<cc:requires rdf:resource="http://web.resource.org/cc/Notice"/>
<cc:permits rdf:resource="http://web.resource.org/cc/DerivativeWorks"/>
<cc:requires rdf:resource="http://web.resource.org/cc/ShareAlike"/>
<cc:requires rdf:resource="http://web.resource.org/cc/SourceCode"/>
</cc:License>
</rdf:RDF>
</metadata>
<defs>
<radialGradient id="a" cx="858.04" cy="579.93" r="300" gradientTransform="matrix(1.215 1.5316e-24 1.4647e-23 1.2667 -839.19 -490.49)" gradientUnits="userSpaceOnUse">
<stop stop-color="#fff" stop-opacity=".31373" offset="0"/>
<stop stop-color="#fff" stop-opacity=".25098" offset=".19"/>
<stop stop-color="#6b6b6b" stop-opacity=".12549" offset=".6"/>
<stop stop-opacity=".12549" offset="1"/>
</radialGradient>
</defs>
<desc>Coat of Arms of Canton of Freiburg (Fribourg)</desc>
<path d="m1.5 1.5v458.87c0 166.31 134.31 301.13 300 301.13 165.69 0 300-134.82 300-301.13v-458.87h-600z" fill="#fff"/>
<g transform="matrix(.82867 0 0 .82867 -4.0485 -4.2866)" stroke="#000">
<path d="m567.45 50.273c5.2959-0.051126 40.521 78.922 44.835 82.036 4.3141 3.114 89.459 11.026 91.144 16.116 1.6845 5.0896-61.526 63.452-63.115 68.574s17.299 89.65 13.044 92.847c-4.2548 3.1967-78.546-39.706-83.842-39.655-5.2959 0.05113-78.768 44.38-83.082 41.266-4.3141-3.114 12.982-87.992 11.297-93.082-1.6845-5.0896-65.98-62.221-64.392-67.343 1.5885-5.1212 86.57-14.676 90.824-17.873 4.2548-3.1967 37.99-82.835 43.286-82.886z" stroke-miterlimit="5" stroke-width="2.4969"/>
<path transform="matrix(1.2068 0 0 1.2068 4.8855 5.1728)" d="m1.5 3.4062v90.656c41.544 10.415 79.461 53.689 86.094 109.62 3.9864 68.369 46.648 102.09 87 109.22 38.242 11.808 77.126 31.26 91.844 107.03 7.4485 51.735 39.682 101.79 90.375 111 59.109 23.983 88.016 54.926 87.75 107.34-0.20398 40.264 20.291 60.828 32.281 66.312 7.9288-6.2123 14.766-11.583 20.75-16.344 0.05026-0.04361 0.10602-0.08135 0.15625-0.125 0.02452-0.01952 0.038-0.043 0.0625-0.0625 29.037-25.247 53.205-55.988 70.875-90.625-11.223-11.38-21.874-36.957-22.969-49.656-5.1644-59.903-58.442-102.58-88.031-107.91-61.535-23.97-85.63-31.799-91.125-111-8.6633-71.003-47.694-92.228-89.344-106.91-50.061-17.642-87.833-34.132-91.375-109.38-1.4616-60.587-45.502-98.052-99.469-109.16l-84.875-0.03125z" fill-rule="evenodd" stroke-width=".99626px"/>
</g>
<g>
<path d="m1.5 1.5v458.87c0 166.31 134.31 301.13 300 301.13 165.69 0 300-134.82 300-301.13v-458.87h-600z" fill="url(#a)"/>
<path d="m1.5 1.5v458.87c0 166.31 134.31 301.13 300 301.13 165.69 0 300-134.82 300-301.13v-458.87h-600z" fill="none" stroke="#000" stroke-width="3"/>
</g>
</svg>
